public/svgs/regular/ticket.svg

<svg xmlns="http://www.w3.org/2000/svg" viewBox="0 0 576 512"><!-- Font Awesome Pro 6.0.0-alpha2 by @fontawesome - https://fontawesome.com License - https://fontawesome.com/license (Commercial License) --><path d="M568 216H576V128C576 92.652 547.346 64 512 64H64C28.654 64 0 92.652 0 128V216H8C30.125 216 48 233.875 48 256S30.125 296 8 296H0V384C0 419.346 28.654 448 64 448H512C547.346 448 576 419.346 576 384V296H568C545.875 296 528 278.125 528 256S545.875 216 568 216ZM528 177.625C499.5 192.25 480 221.875 480 256S499.5 319.75 528 334.375V384C528 392.836 520.836 400 512 400H64C55.164 400 48 392.836 48 384V334.375C76.5 319.75 96 290.125 96 256S76.5 192.25 48 177.625V128C48 119.162 55.164 112 64 112H512C520.836 112 528 119.162 528 128V177.625ZM416 160H160C142.328 160 128 174.326 128 192V320C128 337.672 142.328 352 160 352H416C433.674 352 448 337.672 448 320V192C448 174.326 433.674 160 416 160ZM400 304H176V208H400V304Z"/></svg>

<svg xmlns="http://www.w3.org/2000/svg" viewBox="0 0 576 512"><!--! Font Awesome Pro 6.5.1 by @fontawesome - https://fontawesome.com License - https://fontawesome.com/license (Commercial License) Copyright 2023 Fonticons, Inc. --><path d="M64 64C28.7 64 0 92.7 0 128v60.1c0 10.2 6.4 19.2 16 22.6c18.7 6.6 32 24.4 32 45.3s-13.3 38.7-32 45.3c-9.6 3.4-16 12.5-16 22.6V384c0 35.3 28.7 64 64 64H512c35.3 0 64-28.7 64-64V323.9c0-10.2-6.4-19.2-16-22.6c-18.7-6.6-32-24.4-32-45.3s13.3-38.7 32-45.3c9.6-3.4 16-12.5 16-22.6V128c0-35.3-28.7-64-64-64H64zM48 128c0-8.8 7.2-16 16-16H512c8.8 0 16 7.2 16 16v44.9c-28.7 16.6-48 47.6-48 83.1s19.3 66.6 48 83.1V384c0 8.8-7.2 16-16 16H64c-8.8 0-16-7.2-16-16V339.1c28.7-16.6 48-47.6 48-83.1s-19.3-66.6-48-83.1V128zM400 304H176V208H400v96zM128 192V320c0 17.7 14.3 32 32 32H416c17.7 0 32-14.3 32-32V192c0-17.7-14.3-32-32-32H160c-17.7 0-32 14.3-32 32z"/></svg>
